X:155
T: Walsh's
S: "Johnny O'Leary of Sliabh Luachra" (#119)
Z: B.Black
L: 1/8
M: 4/4
R: hornpipe
K: A
(3ABc Ec Acec|dfBc deff|(3fed ce aceA|(3Bcd cA BAFA|
(3ABc Ec Acec|dfBc deff|(3fed ce aceA|
|1 (3Bcd (3c/d/c/B A2 A2 :|2 (3Bcd (3c/d/c/B A2 ce||
aece (3f/g/f/ece|aece fecB|A2 ce aecA|(3Bcd (3c/d/c/B BAFA|
(3ABc Ec Acec|dfBc deff|(3fed ce aceA|1 (3Bcd cB A2 EF :|2\
(3Bcd cB A2 A2||
